X:1
T:The Wark O' The Weavers
M:6/8
L:1/4
K:C
 G/2| G3/2 G G/2| G G/2 G G/2| A3/2 c c/2| G3/2 E F/2| G G/2 c c/2|\
 c3/2 d e/2| f f/2 e e/2| d3/2 z/2 G/2G/2| E G/2 G G/2| G G/2 G G/2|\
 A A/2 c c/2| G3/2 E F/2| G G/2 G G/2| G3/2 e c/2| d3| c3/2- c/2d/2 d/2|\
 e e/2 e e/2| d3/2 d3/2| c3/2 c c/2| B3/2- B B/2| A B/2 c- A/2| G3/2 e- e/2|\
 f3/2 e3/2| d3/2- d G/2| E G/2 G G/2| G3/2 G G/2| A3/2 c c/2| G3/2 E F/2|\
 G G/2 G G/2| G3/2 e c/2| d3| c3/2- c||
